storage/app/icons/phosphoricons/duotone/mouse-duotone.svg

<svg xmlns="http://www.w3.org/2000/svg" fill="currentColor" viewBox="0 0 256 256"><path d="M200 112v64a56 56 0 0 1-56 56h-32a56 56 0 0 1-56-56v-64Z" opacity=".2"/><path d="M144 16h-32a64.07 64.07 0 0 0-64 64v96a64.07 64.07 0 0 0 64 64h32a64.07 64.07 0 0 0 64-64V80a64.07 64.07 0 0 0-64-64m48 64v24h-56V32h8a48.05 48.05 0 0 1 48 48m-80-48h8v72H64V80a48.05 48.05 0 0 1 48-48m32 192h-32a48.05 48.05 0 0 1-48-48v-56h128v56a48.05 48.05 0 0 1-48 48"/></svg>

<svg xmlns="http://www.w3.org/2000/svg" viewBox="0 0 256 256" fill="currentColor"><path d="M200,112v64a56,56,0,0,1-56,56H112a56,56,0,0,1-56-56V112Z" opacity="0.2"/><path d="M144,16H112A64.07,64.07,0,0,0,48,80v96a64.07,64.07,0,0,0,64,64h32a64.07,64.07,0,0,0,64-64V80A64.07,64.07,0,0,0,144,16Zm48,64v24H136V32h8A48.05,48.05,0,0,1,192,80ZM112,32h8v72H64V80A48.05,48.05,0,0,1,112,32Zm32,192H112a48.05,48.05,0,0,1-48-48V120H192v56A48.05,48.05,0,0,1,144,224Z"/></svg>
